X:244
T:Finbar Dwyer's
T:The Fox on the Town
M:4/4
L:1/8
R:reel
C:Finbar Dwyer
D:Frankie Gavin: Croch Suas E
D:Conal O'Grada: The Top of Coom
D:Matt Molloy:
Z:id:hn-reel-619
K:G
gedg edBA|G2Bd edBd|gedB ~e3f|geed efga|
bggd edBA|G2Bd edBd|efgb agef|1 gbaf g2de:|2 gbaf g2ga||
|:be~e2 bage|dB~B2 dega|be~e2 bage|degb agef|
~g3d edBA|G2Bd edBd|efgb agef|1 gbaf g2ga:|2 gbaf g2de||
